src/shared/assets/feed/icon/black_mail_chat_bubble_oval_smiley-1_Streamline-Plump.svg

<svg width="24" height="24" viewBox="0 0 24 24" fill="none" xmlns="http://www.w3.org/2000/svg">
<path fill-rule="evenodd" clip-rule="evenodd" d="M0.749817 12C0.749817 5.7868 5.78662 0.75 11.9998 0.75C18.213 0.75 23.2498 5.7868 23.2498 12C23.2498 18.2132 18.213 23.25 11.9998 23.25C9.95487 23.25 8.03672 22.7041 6.38382 21.7501C5.15092 22.2052 3.75443 22.6525 2.3787 22.9746C1.54957 23.1687 0.806757 22.4585 0.975462 21.6199C1.26504 20.1805 1.70742 18.7397 2.17883 17.4914C1.26865 15.867 0.749817 13.9937 0.749817 12ZM15.1638 14.4514C15.4668 13.9896 16.0867 13.8609 16.5485 14.1639C17.0102 14.467 17.1389 15.0869 16.8359 15.5486C15.7379 17.2218 13.8233 18 11.9998 18C10.1763 18 8.26172 17.2218 7.16377 15.5486C6.86077 15.0869 6.98942 14.467 7.45117 14.1639C7.91292 13.8609 8.53287 13.9896 8.83587 14.4514C9.48792 15.445 10.6983 16 11.9998 16C13.3013 16 14.5117 15.445 15.1638 14.4514ZM8.49982 7.5C9.05212 7.5 9.49982 7.9477 9.49982 8.5V9.5C9.49982 10.0523 9.05212 10.5 8.49982 10.5C7.94752 10.5 7.49982 10.0523 7.49982 9.5V8.5C7.49982 7.9477 7.94752 7.5 8.49982 7.5ZM14.4998 8.5C14.4998 7.9477 14.9475 7.5 15.4998 7.5C16.0521 7.5 16.4998 7.9477 16.4998 8.5V9.5C16.4998 10.0523 16.0521 10.5 15.4998 10.5C14.9475 10.5 14.4998 10.0523 14.4998 9.5V8.5Z" fill="black"/>
</svg>

<svg xmlns="http://www.w3.org/2000/svg" fill="none" viewBox="0 0 24 24"><path fill="#000" fill-rule="evenodd" d="M.75 12C.75 5.787 5.787.75 12 .75S23.25 5.787 23.25 12 18.213 23.25 12 23.25a11.2 11.2 0 0 1-5.616-1.5c-1.233.455-2.63.902-4.005 1.225A1.152 1.152 0 0 1 .975 21.62c.29-1.44.732-2.88 1.204-4.129A11.2 11.2 0 0 1 .749 12m14.414 2.451a1 1 0 1 1 1.672 1.098C15.738 17.222 13.823 18 12 18s-3.738-.778-4.836-2.451a1 1 0 1 1 1.672-1.098C9.488 15.445 10.698 16 12 16c1.301 0 2.512-.555 3.164-1.549M8.5 7.5a1 1 0 0 1 1 1v1a1 1 0 1 1-2 0v-1a1 1 0 0 1 1-1m6 1a1 1 0 1 1 2 0v1a1 1 0 1 1-2 0z" clip-rule="evenodd"/></svg>
